X:24
T:Pe trouz war an douar
M:6/8
L:1/8
K:Gm
D|D2G G2F|G3 B3|A2G F2G|D3- D2D|D3G G2F|G3 B3|A2G F2 G|D3-D2z|
[M:9/8]G3 F2D E2F|D2E D2C B,2C|[M:6/8]D3 D2D|D2G G2F|G3 B3|A2c B2A|G3- G2||
